X:38
T:The Liverpool Hornpipe
B:O'Neill's 1565
Z:Michael Hogan
R:hornpipe
M:4/4
L:1/8
K:D
AG | FDFA dfaf | gfec dcBA | G2 BG F2 AF | EDEF GFED|
FDFA dfaf | gfec dcBA | dfaf bgec | d2 d2 d2 ::
A2 | dfdf cece | Bcde dcBA | GBGB FAFA | EFGA GFED |
FDFA dfaf | gefd dcBA | afdf gece | d2 d2 d2 :|
